img/elem/ElemAxiconMirror24.svg

<svg height="24" width="24" xmlns="http://www.w3.org/2000/svg">
<path d="m24 2h-15l-3 4 18 12-14-13h14z" fill="#f00"/>
<path d="m24 22h-15l-3-4 18-12-14 13h14z" fill="#f00"/>
<path d="m10.5 25-9.28-13.44 9.28-12.56" fill="none" stroke="#000" stroke-linecap="square" stroke-width="2"/>
<path d="m5 11.5h23" stroke="#000" stroke-dasharray="4 2" transform="translate(-3.28 -.01)"/>
<g fill="none" stroke="#060606" stroke-linecap="square" transform="translate(-2 2)">
<path d="m4 7-2-2m4 0-4-4m6 2-6-6m8 4-3-3"/>
<path d="m7 22 2-2m-7 3 6-6m-6 2 4-4m-4 0 2.96-2.96"/>
</g>
</svg>

<?xml version="1.0" encoding="UTF-8" standalone="no"?>
<svg
   xmlns:dc="http://purl.org/dc/elements/1.1/"
   xmlns:cc="http://creativecommons.org/ns#"
   xmlns:rdf="http://www.w3.org/1999/02/22-rdf-syntax-ns#"
   xmlns:svg="http://www.w3.org/2000/svg"
   xmlns="http://www.w3.org/2000/svg"
   id="svg18"
   version="1.1"
   width="24"
   height="24">
  <metadata
     id="metadata24">
    <rdf:RDF>
      <cc:Work
         rdf:about="">
        <dc:format>image/svg+xml</dc:format>
        <dc:type
           rdf:resource="http://purl.org/dc/dcmitype/StillImage" />
        <dc:title></dc:title>
      </cc:Work>
    </rdf:RDF>
  </metadata>
  <defs
     id="defs22" />
  <path
     id="path2"
     fill="#f00"
     d="m24 2h-15l-3 4 18 12-14-13h14z" />
  <path
     id="path4"
     fill="#f00"
     d="m24 22h-15l-3-4 18-12-14 13h14z" />
  <g
     id="g844"
     style="fill:none;stroke:#000000;stroke-linecap:square">
    <g
       transform="translate(-2,2)"
       id="g838"
       style="stroke-linecap:square" />
    <path
       d="M 10.5,25 1.22,11.56 10.5,-1"
       id="path842"
       style="stroke-width:2;stroke-linecap:square" />
  </g>
  <g
     style="stroke:#000000"
     transform="translate(-3.2800682,-0.01219458)"
     id="g910">
    <path
       style="stroke-dasharray:4, 2"
       id="path906"
       d="M 5,11.5 H 28" />
  </g>
  <g
     style="fill:none;stroke:#060606;stroke-linecap:square;stroke-opacity:1"
     id="g1494">
    <g
       style="stroke-linecap:square;stroke:#060606;stroke-opacity:1"
       id="g1490"
       transform="translate(-2,2)">
      <path
         style="stroke:#060606;stroke-linecap:square;stroke-opacity:1"
         id="path1486"
         d="M 4,7 2,5 M 6,5 2,1 M 8,3 2,-3 m 8,4 -3,-3" />
      <path
         style="stroke:#060606;stroke-linecap:square;stroke-opacity:1"
         id="path1488"
         d="M 7,22 9,20 M 2,23 8,17 M 2,19 6,15 M 2,15 4.96,12.04" />
    </g>
  </g>
</svg>
